X: 36939
T: Short Mesure Off My Lady Wynkfylds Rownde, The
R: waltz
M: 3/4
K: Cmajor
|"C" cB cd ec|"G" B3 A G2|"C" cB cd ec|"Bb" f3 e dc|
"Bb"_BA GF ED|"C"EF GA Bc|"G"Bc dc df|"C"e3 d ef|"G"e6|
"C"cB cd ec|"G"B3 A G2|"C"cB cd ec|"Bb"f3 e dc|"Bb"_BA GF ED|
"C" EF GA Bc|"G" Bc dB dB|"C"c3 B cd|"C" c6||
|:"G" BA Bc d2|"G" B6|"C" cB cd e2|"C" c6|"G" BA Bc d2|
"G" B4 f2|"C" e3 d c2|"G"B3 A B2|"C" c6-|"C"c6:|

